!!!COM: Bach, Johann Sebastian
!!!CDT: 1685/3//-1750/7/28/
!!!OTL@@DE: Was frag' ich nach der Welt
!!!AGN: 4-Part Chorale
!!!SCT: BH 255
!!!SCT: BWV 64
!!!YEC: Copyright 1994, David Huron
!!!YEC: Changes/Additions 2001 by Craig Stuart Sapp
!!!YEN: United States of America
!!!SMA: 371 Bach Chorales, edited by Ludwig Erk, C.F. Peters
!!!PDT: 1850, 1865
!!!ONB: Harmony and Root analysis done manually
**kern	**kern	**kern	**kern	**root	**harm
!bass	!tenor	!alto	!soprno	!	!
*Iorgan	*Iorgan	*Iorgan	*Iorgan	*Iorgan	*
*M4/4	*M4/4	*M4/4	*M4/4	*M4/4	*M4/4
*met(C)	*met(C)	*met(C)	*met(C)	*met(C)	*met(C)
*MM60	*MM60	*MM60	*MM60	*MM60	*MM60
*k[f#c#]	*k[f#c#]	*k[f#c#]	*k[f#c#]	*k[f#c#]	*k[f#c#]
*D:	*D:	*D:	*D:	*D:	*D:
4C#	4A	4e	4a	4AA	Vb
=1	=1	=1	=1	=1	=1
8D	4A	4d	4f#	4DD	I
8C#	.	.	.	.	.
8D	4A	8f#	4d	4DD	I
8E	.	8e	.	.	.
8F#	4A	4d	4a	4DD	Ib
8E	.	.	.	.	.
8F#	4d	8a	4a	4DD	Ib
8D	.	8f#	.	.	.
=2	=2	=2	=2	=2	=2
2.G;	2.d;	2.g;	2.b;	2.GG;	IV;
4GG	4G	4d	4b	4GG	IV
=3	=3	=3	=3	=3	=3
8AA	4.G	8c#	4e	4AA	V7
8GG	.	8d	.	.	.
8AA	.	8c#	4e	4AA	V7
8BB	8F#	8B	.	.	.
8C#	4E	4A	4a	4AA	Vb
8BB	.	.	.	.	.
8C#	4A	4e	4g	4AA	V7b
8AA	.	.	.	.	.
=4	=4	=4	=4	=4	=4
4D	4A	4d	4f#	4DD	I
4D;	4F#;	4A;	4d;	4DD;	I;
4r	4r	4r	4r	4r	r
4F#	4A	4d	4a	4DD	Ib
=5	=5	=5	=5	=5	=5
4G	8G	4d	4b	4GG	IV
.	8A	.	.	.	.
4E	4B	4g	4b	4EE	ii
4A	8c#	4f#	4a	4DD	Ic
.	8d	.	.	.	.
4AA	8d	4e	4g	4AA	V7
.	8c#	.	.	.	.
=6	=6	=6	=6	=6	=6
2.D;	2.d;	2.A;	2.f#;	2.DD;	I;
4AA	4c#	4c#	4e	4AA	V
=7	=7	=7	=7	=7	=7
8D	4A	4d	4f#	4DD	I
8C#	.	.	.	.	.
8D	4B	4e	4g#	4EE	V7d/V
8BB	.	.	.	.	.
8C#	4.A	4.e	4.a	4.AA	Vb
8BB	.	.	.	.	.
8C#	.	.	.	.	.
8D	8d	8f#	8b	8BB	vib
=8	=8	=8	=8	=8	=8
4E	2B	2e	2g#	2EE	V/V
4EE	.	.	.	.	.
4AA;	4c#;	4e;	4a;	4AA;	V;
4AA	4c#	4e	4a	4AA	V
!!linebreak: 2
=9	=9	=9	=9	=9	=9
8D	4d	8f#	4a	4DD	I
8C#	.	8e	.	.	.
8D	4d	8f#	4a	4DD	I
8E	.	8g	.	.	.
8F#	4d	8a	4dd	4DD	Ib
8E	.	8g	.	.	.
8F#	4d	8a	4ccn	4DD	I7b
8D	.	8f#	.	.	.
=10	=10	=10	=10	=10	=10
2.G;	2.d;	2.g;	2.b;	2.GG;	IV;
4D#	8B	4f#	4b	4BB	Vb/II
.	8A	.	.	.	.
=11	=11	=11	=11	=11	=11
8E	8G#	4e	4b	4EE	II
8D#	8F#	.	.	.	.
8E	8G#	4e	4b	4EE	II
8F#	8A	.	.	.	.
8G#	8B	4e	4ee	4EE	IIb
8F#	8A	.	.	.	.
8G#	8B	4e	4dd	4EE	II7b
8E	8G#	.	.	.	.
=12	=12	=12	=12	=12	=12
2.A;	2.A;	2.e;	2.cc#	2.AA;	V;
4F#	4d	4d	4a	4DD	Ib
=13	=13	=13	=13	=13	=13
8Gn	4d	4g	4b	4GG	IV
8A	.	.	.	.	.
8G	4d	4a	4a	4DD	Ib
8F#	.	.	.	.	.
8G	4d	4g	4b	4GG	IV
8F#	.	.	.	.	.
8G	4e	8b	4cc#	4AA#	viioD7c/vi
8E	.	8a#	.	.	.
=14	=14	=14	=14	=14	=14
2.B;	2.f#;	2.b;	2.dd;	2.BB;	vi;
4C#	4e	8a	4a	4AA	Vb
.	.	8g	.	.	.
=15	=15	=15	=15	=15	=15
8D	4d	4f#	4a	4DD	I
8E	.	.	.	.	.
8F#	4A	8e	8g	4FF#	iii7
8G	.	8d	8f#	.	.
4A	8A	4d	4e	4AA	V
.	8B	.	.	.	.
4AA	8A	4c#	4e	4AA	V
.	8G	.	.	.	.
=16	=16	=16	=16	=16	=16
2.D;	2.F#;	2.A;	2.d;	2.DD;	I;
==	==	==	==	==	==
*-	*-	*-	*-	*-	*-
!!chor2scor: -l 2 -s 0.6 -o %b.pmx
